packages/icons/src/fire-fill.svg

<svg width="24" height="24" viewBox="0 0 24 24" fill="none" xmlns="http://www.w3.org/2000/svg">
<path d="M4.17505 14.0026C4.17505 12.4765 4.5337 11.0939 5.251 9.85481C5.9683 8.61573 6.77971 7.53796 7.68522 6.62151C8.59076 5.70508 9.45582 4.97079 10.2804 4.41864C11.105 3.86651 11.6198 3.51671 11.825 3.36926V6.29996C11.825 6.97028 12.0506 7.50036 12.5018 7.89021C12.953 8.28006 13.4589 8.47499 14.0194 8.47499C14.2757 8.47499 14.5205 8.42959 14.7538 8.33879C14.987 8.24797 15.2076 8.10748 15.4154 7.91731L16.0308 7.24809C17.191 7.9891 18.1135 8.95385 18.7981 10.1423C19.4827 11.3308 19.825 12.6126 19.825 13.988C19.825 15.5447 19.4199 16.9375 18.6096 18.1663C17.7993 19.3952 16.7461 20.3186 15.4499 20.9365C15.8032 20.5468 16.0791 20.1051 16.2774 19.6115C16.4758 19.1179 16.575 18.5992 16.575 18.0555C16.575 17.4608 16.4606 16.887 16.2318 16.334C16.003 15.7811 15.6745 15.2877 15.2461 14.8538L12 11.6981L8.7789 14.8538C8.33917 15.2769 8.0036 15.7607 7.7722 16.3052C7.54078 16.8498 7.42507 17.4313 7.42507 18.05C7.42507 18.5974 7.52426 19.1179 7.72262 19.6115C7.92099 20.1051 8.19682 20.5468 8.5501 20.9365C7.25393 20.3186 6.20072 19.394 5.39045 18.1627C4.58018 16.9314 4.17505 15.5447 4.17505 14.0026Z" fill="black"/>
<path d="M12 14.6962L13.776 16.4529C14.0102 16.6894 14.1894 16.9496 14.3137 17.2337C14.4379 17.5177 14.5 17.8244 14.5 18.1538C14.5 18.8302 14.2567 19.4074 13.77 19.8853C13.2833 20.3633 12.6933 20.6022 12 20.6022C11.3067 20.6022 10.7167 20.3633 10.23 19.8853C9.74333 19.4074 9.5 18.8302 9.5 18.1538C9.5 17.826 9.56022 17.5202 9.68067 17.2363C9.8011 16.9525 9.98077 16.694 10.2197 16.4606L12 14.6962Z" fill="black"/>
</svg>

<svg xmlns="http://www.w3.org/2000/svg" width="24" height="24" fill="none" viewBox="0 0 24 24">
  <path fill="#000" d="M4.175 14.003c0-1.527.359-2.91 1.076-4.148.717-1.24 1.529-2.317 2.434-3.233.906-.917 1.77-1.651 2.595-2.203a79.42 79.42 0 0 0 1.545-1.05V6.3c0 .67.226 1.2.677 1.59.451.39.957.585 1.517.585.257 0 .502-.045.735-.136a2.12 2.12 0 0 0 .661-.422l.616-.669a8.308 8.308 0 0 1 2.767 2.894 7.575 7.575 0 0 1 1.027 3.846c0 1.557-.405 2.95-1.215 4.178a7.694 7.694 0 0 1-3.16 2.77c.353-.39.63-.83.827-1.325a4.133 4.133 0 0 0 .298-1.556 4.46 4.46 0 0 0-.343-1.721 4.586 4.586 0 0 0-.986-1.48L12 11.698l-3.221 3.156a4.38 4.38 0 0 0-1.007 1.451 4.414 4.414 0 0 0-.347 1.745c0 .547.1 1.068.298 1.561.198.494.474.936.827 1.325-1.296-.617-2.35-1.542-3.16-2.773-.81-1.232-1.215-2.618-1.215-4.16Z"/>
  <path fill="#000" d="m12 14.696 1.776 1.757c.234.236.413.497.538.78.124.285.186.591.186.92 0 .677-.243 1.254-.73 1.732a2.433 2.433 0 0 1-1.77.717 2.433 2.433 0 0 1-1.77-.717 2.338 2.338 0 0 1-.73-1.731c0-.328.06-.634.18-.918.121-.284.3-.542.54-.775L12 14.696Z"/>
</svg>
